X: 1
T:Coleman's March
L:1/4
M: C|
R: polka
K:D
|: F4 | G3F/G/ | AA/B/ A/F/D | E3F/G/ |
   Adc2 | BB/A/ F/E/D | EE/F/ G/F/E |1 D2 A/B/A/G/ :|2 D2 D/F/A/c/ ||
|: d4 |c4 | BB/c/ d/c/B | A3F/G/ |
   Adc2 | BB/A/ F/E/D | EE/F/ G/F/E |1 D2 D/F/A/c/ :|2 D2 A/B/A/G/ |]
N:http://www.thesession.org/tunes/display/3888
N:Adapted by Peter Ostapenko 5/12/2007
N:D Major
